packages/icons/raw/imported/MediaHeadphones.svg

<svg width="32" height="32" viewBox="0 0 32 32" fill="none" xmlns="http://www.w3.org/2000/svg">
<path d="M10.1538 22.5769V23.0769H10.1539L10.1538 22.5769ZM10.1538 15.2693V15.7693H10.1539L10.1538 15.2693ZM10.3462 22.5769L10.3462 23.0769H10.3462L10.3462 22.5769ZM10.3461 15.2693L10.3461 15.7693H10.3461L10.3461 15.2693ZM21.8462 22.5769L21.8461 23.0769H21.8462V22.5769ZM21.8462 15.2693L21.8461 15.7693H21.8462V15.2693ZM21.6538 22.5769L21.6538 23.0769H21.6538L21.6538 22.5769ZM21.6539 15.2693L21.6539 15.7693H21.6539L21.6539 15.2693ZM22.9769 22.8769C23.1426 22.656 23.0978 22.3426 22.8769 22.1769C22.656 22.0112 22.3426 22.056 22.1769 22.2769L22.9769 22.8769ZM21.2846 24.3L20.8846 24L21.2846 24.3ZM16 25C15.7239 25 15.5 25.2239 15.5 25.5C15.5 25.7761 15.7239 26 16 26V25ZM9.19231 13.6812C9.19231 9.99945 12.2319 7 16 7V6C11.6962 6 8.19231 9.43077 8.19231 13.6812H9.19231ZM16 7C19.7681 7 22.8077 9.99945 22.8077 13.6812H23.8077C23.8077 9.43077 20.3038 6 16 6V7ZM22.8077 13.6812V15.7158H23.8077V13.6812H22.8077ZM8.19231 13.6812V15.7158H9.19231V13.6812H8.19231ZM10.1538 22.0769C8.41202 22.0769 7 20.6649 7 18.9231H6C6 21.2172 7.85975 23.0769 10.1538 23.0769V22.0769ZM7 18.9231C7 17.1813 8.41202 15.7693 10.1538 15.7693V14.7693C7.85975 14.7693 6 16.629 6 18.9231H7ZM10.1539 15.7693L10.3461 15.7693L10.3461 14.7693L10.1538 14.7693L10.1539 15.7693ZM11.8462 17.2693V20.5769H12.8462V17.2693H11.8462ZM10.3462 22.0769L10.1538 22.0769L10.1539 23.0769L10.3462 23.0769L10.3462 22.0769ZM11.8462 20.5769C11.8462 21.4053 11.1746 22.0769 10.3462 22.0769L10.3462 23.0769C11.7269 23.0769 12.8462 21.9576 12.8462 20.5769H11.8462ZM10.3461 15.7693C11.1745 15.7693 11.8462 16.4409 11.8462 17.2693H12.8462C12.8462 15.8886 11.7268 14.7693 10.3461 14.7693L10.3461 15.7693ZM21.8462 23.0769C24.1403 23.0769 26 21.2172 26 18.9231H25C25 20.6649 23.588 22.0769 21.8462 22.0769V23.0769ZM26 18.9231C26 16.629 24.1403 14.7693 21.8462 14.7693V15.7693C23.588 15.7693 25 17.1813 25 18.9231H26ZM21.8462 14.7693L21.6539 14.7693L21.6539 15.7693L21.8461 15.7693L21.8462 14.7693ZM19.1538 17.2693V20.5769H20.1538V17.2693H19.1538ZM21.6538 23.0769L21.8461 23.0769L21.8462 22.0769L21.6538 22.0769L21.6538 23.0769ZM19.1538 20.5769C19.1538 21.9576 20.2731 23.0769 21.6538 23.0769L21.6538 22.0769C20.8254 22.0769 20.1538 21.4053 20.1538 20.5769H19.1538ZM21.6539 14.7693C20.2732 14.7693 19.1538 15.8886 19.1538 17.2693H20.1538C20.1538 16.4409 20.8255 15.7693 21.6539 15.7693L21.6539 14.7693ZM22.1769 22.2769L20.8846 24L21.6846 24.6L22.9769 22.8769L22.1769 22.2769ZM18.8846 25H16V26H18.8846V25ZM20.8846 24C20.4125 24.6295 19.6715 25 18.8846 25V26C19.9863 26 21.0236 25.4813 21.6846 24.6L20.8846 24Z" fill="black"/>
</svg>

<svg width="32" height="32" fill="none" xmlns="http://www.w3.org/2000/svg"><path d="M10.154 22.577v.5-.5Zm0-7.308v.5-.5Zm.192 7.308v.5-.5Zm0-7.308v.5-.5Zm11.5 7.308v.5-.5Zm0-7.308v.5-.5Zm-.192 7.308v.5-.5Zm0-7.308v.5-.5Zm1.323 7.608a.5.5 0 0 0-.8-.6l.8.6ZM21.285 24.3l-.4-.3.4.3ZM16 25a.5.5 0 0 0 0 1v-1ZM9.192 13.681C9.192 10 12.232 7 16 7V6c-4.304 0-7.808 3.43-7.808 7.681h1ZM16 7c3.768 0 6.808 3 6.808 6.681h1C23.808 9.431 20.304 6 16 6v1Zm6.808 6.681v2.035h1V13.68h-1Zm-14.616 0v2.035h1V13.68h-1Zm1.962 8.396A3.154 3.154 0 0 1 7 18.923H6a4.154 4.154 0 0 0 4.154 4.154v-1ZM7 18.923a3.154 3.154 0 0 1 3.154-3.154v-1A4.154 4.154 0 0 0 6 18.923h1Zm3.154-3.154h.192v-1h-.192v1Zm1.692 1.5v3.308h1v-3.308h-1Zm-1.5 4.808h-.192v1h.192v-1Zm1.5-1.5a1.5 1.5 0 0 1-1.5 1.5v1a2.5 2.5 0 0 0 2.5-2.5h-1Zm-1.5-4.808a1.5 1.5 0 0 1 1.5 1.5h1a2.5 2.5 0 0 0-2.5-2.5v1Zm11.5 7.308A4.154 4.154 0 0 0 26 18.923h-1a3.154 3.154 0 0 1-3.154 3.154v1ZM26 18.923a4.154 4.154 0 0 0-4.154-4.154v1A3.154 3.154 0 0 1 25 18.923h1Zm-4.154-4.154h-.192v1h.192v-1Zm-2.692 2.5v3.308h1v-3.308h-1Zm2.5 5.808h.192v-1h-.192v1Zm-2.5-2.5a2.5 2.5 0 0 0 2.5 2.5v-1a1.5 1.5 0 0 1-1.5-1.5h-1Zm2.5-5.808a2.5 2.5 0 0 0-2.5 2.5h1a1.5 1.5 0 0 1 1.5-1.5v-1Zm.523 7.508L20.885 24l.8.6 1.292-1.723-.8-.6ZM18.885 25H16v1h2.885v-1Zm2-1a2.5 2.5 0 0 1-2 1v1a3.5 3.5 0 0 0 2.8-1.4l-.8-.6Z" fill="#000"/></svg>
